X:19
T:The Big Reel of Ballynacally
R:Reel
D:Solas: Sunny Spells and Scattered Showers (1997)
Z:Gwen 2019-05-30 d'après un enregistrement de Jaouen
M:2/2
K:G
|: DGGG A2dc | AGGG AGGA | DGGG A2dc | AGGE =F2E=F |
   DGGG A2dc | AGGG AGGA | d2de f2fd |1 cAFG AGGA :|2 cAFG AGG2 |
|: dggd g2dg | g2ag ^fddd | g2fg a2ag | fdcA BGBd |
   g2fg a=f=fe | =fg=fd e2ce | d2de f2fd | cAFG AGG2 :|

